X:9
T:J'tais dans la joie - K8
C:R. Reboud
M:2/4
L:1/8
K:D
D3/E/ FG|A2 z2|B2 A3/G/|A2 z2|GG AG|FF ED|E2 D3/C/|D4||
z2 zA,|D3/E/ FG|A2 A2|B2 A3/G/|A4|G2 AG|F2 ED|E2 A,2|D4||
z2 zD|C2 B,2|A,2 zA,|DD CB,|B,2 A,A,|DE FG|
A2 A2|B2 A3/G/|A4|G2 AG|FF ED|E2 A,2|D4||
z2 A,A,|D4|CC B,A,|D4|CC B,A,|DE FG|A4|
B2 A3/G/|A2 zA|GG AG|F4|E2 A,2|D4||
